!!!OTL: Waldvoegeleins Bitte.
!!!ARE: Europa, Mitteleuropa, Deutschland
!!!SCT: A0115
!!!TXL: @@GMH
!!!YEM: Copyright 1995, estate of Helmut Schaffrath.
**kern	**text
!! Mixed meters:  4/2; 3/2
*M4/2	*
*met(c|)	*
*clefC4	*
*k[b-]	*
*F:ion	*
!LO:TX:a:t=jon.	!
2ryy	.
{2F	Es
=1	=1
2F	flog
2G	ein
2A	klein
2B-	wald-
=2	=2
2.c	-vö-
4c	-ge-
2c}	lein
{2c	der
=3	=3
2d	liebn
2c	fürs
2c	fen-
2B-	-ſter-
=4	=4
1c	-lein,
2r}	.
{2c	es
=5	=5
2c	klo-
2c	-pfet
2d	al-
2B-	-ſo
=6	=6
1c	lei-
2B-}	-ſe
{2A	mit
=7	=7
*lig	*
2G/	ſei-
2A/	.
*Xlig	*
2c	-nem
1c	gül-
=8-	=8-
.	.
4B-	-den
4A	.
1G	ſchnäb-
=9	=9
*M3/2	*
*met(3)	*
!LO:N:vis=1	!
2F	-lein:
2r}	.
!LO:N:vis=1	!
{2c	Stand
=10	=10
!LO:N:vis=0	!
1c	auf,
!LO:N:vis=1	!
2B-	herʒ-
=11	=11
!LO:N:vis=0	!
1A	-lieb,
!LO:N:vis=1	!
2G	und
=12	=12
!LO:N:vis=0	!
1F	laß
!LO:N:vis=1	!
2F	mich
=13	=13
*M4/2	*
!LO:N:vis=0	!
1G;	ein!
2r}	.
{2F	ich
=14	=14
*M4/2	*
*met(c|)	*
2F	bin
2G	ſo
2A	lang
2B-	ge-
=15	=15
*lig	*
2.c	-ſtan-
4d	.
*Xlig	*
2c}	-den,
{2c	wol
=16	=16
*lig	*
2.A	durch
4B-	.
*Xlig	*
*lig	*
4c	den
4d	.
*Xlig	*
*lig	*
1c	wil-
=17-	=17-
.	.
4B-	.
4A	.
*Xlig	*
1G	-len
=18	=18
1F/ll}	dein.
==	==
!!!GTL: Tage- oder Wächterlieder
!!!AGN: Romanze, Ballade, Lied
!! Melodie aus Gerle, Tabulatur 1546.
!!!ONB: ESAC (Essen Associative Code) Database: ALTDEU
!!!AMT: irregular
!!!AIN: vox
!!!EED: Helmut Schaffrath
!!!EEV: 1.0
!!!RDF**kern: l = terminal long
!!!AMD: Ionian
!!!URL-scan: https://rosdok.uni-rostock.de/mcrviewer/recordIdentifier/rosdok_ppn738218359/iview2/phys_0286.iview2?x=-2091.770685579196&y=618.6685579251498&scale=0.2411630558722919&rotation=0&layout=singlePageLayout&logicalDiv=log_0008
!!!ENC: Anna Maria Matuszewska
!!!EEV: 2024/23/02
*-	*-
